assets/cursor-pencil.svg

<svg fill="none" height="52" viewBox="0 0 50 52" width="50" xmlns="http://www.w3.org/2000/svg" xmlns:xlink="http://www.w3.org/1999/xlink"><filter id="a" color-interpolation-filters="sRGB" filterUnits="userSpaceOnUse" height="56" width="56" x="-3" y="-1"><feFlood flood-opacity="0" result="BackgroundImageFix"/><feColorMatrix in="SourceAlpha" result="hardAlpha" type="matrix" values="0 0 0 0 0 0 0 0 0 0 0 0 0 0 0 0 0 0 127 0"/><feOffset dy="2"/><feGaussianBlur stdDeviation="1.5"/><feColorMatrix type="matrix" values="0 0 0 0 0 0 0 0 0 0 0 0 0 0 0 0 0 0 0.25 0"/><feBlend in2="BackgroundImageFix" mode="normal" result="effect1_dropShadow_2162_2164"/><feBlend in="SourceGraphic" in2="effect1_dropShadow_2162_2164" mode="normal" result="shape"/></filter><g filter="url(#a)"><path d="m11.9647 35.6931c1.2764-1.0654 2.9336-.9556 3.1907 1.1513.903-.4372 2.24-.1475 2.4349 1.4869 1.5915-.3207 2.5052.5134 3.0286 1.5238l12.4246-20.4305-7.5056-4.643z" fill="#ff9800"/><path d="m12.6932 35.1901c1.5615-.6533 2.6928.4317 2.4623 1.6542 1.2535-.8524 2.24-.1474 2.435 1.4869 1.5914-.3207 2.5051.5134 3.0286 1.5238 0 0-6.0536 2.3407-7.9879 4.681s-1.4603-.3844-1.347-.7533c.6451-2.0777 1.409-8.5926 1.409-8.5926z" fill="#fffac5"/><path d="m33.4867 18.916-13.3341 21.634s-5.0066.0208-7.9263 3.7665c-.2611-.1998-.5578-.3482-.8742-.4374 0 0 2.7237-4.248.9783-8.1559l13.6858-20.861" stroke="#000" stroke-linecap="round" stroke-linejoin="round" stroke-miterlimit="10" stroke-width="1.5054"/><path d="m24.3253 29.0399c.0243-.0406.0342-.089.0256-.136-.0087-.0471-.0349-.0887-.0733-.116s-.0864-.0384-.1336-.031c-.0473.0073-.0897.0326-.1201.0689-.112.1342-.2236.2687-.3349.4035-1.5771 1.9099-3.0811 3.8717-4.5122 5.8855-.3864.5437-.7728 1.0874-1.1592 1.6312-.1009.142-.2019.2841-.3029.4262-.0757.1065-.106.2388-.0842.3677s.0939.2438.2005.3196c.1066.0757.2388.106.3677.0842s.2439-.0939.3196-.2005c.1009-.1421.2019-.2841.3029-.4262.3864-.5438.7728-1.0875 1.1592-1.6312 1.431-2.0137 2.789-4.0794 4.074-6.1969.0906-.1494.1809-.2991.2709-.449z" fill="#000"/><path d="m17.1657 33.451c-.0306.0554-.0414.1205-.0274.1829.0141.0623.0513.1165.1042.1509s.1175.0466.1802.0342c.0627-.0125.1179-.0487.1561-.0991.2092-.2764.4174-.5534.6247-.8311 2.1082-2.8229 4.1212-5.7077 6.0391-8.6544 1.4772-2.2696 2.9545-4.5392 4.4317-6.8089l.5658-.8694c.0951-.146.1283-.3239.0922-.4944-.036-.1706-.1384-.3198-.2845-.4148-.146-.0951-.3239-.1283-.4944-.0922s-.3198.1384-.4148.2845c-.1886.2898-.3773.5796-.5659.8693-1.4772 2.2697-2.9544 4.5393-4.4317 6.809-1.9179 2.9467-3.7407 5.9553-5.4683 9.0258-.1699.302-.3389.6046-.507.9077z" fill="#000"/><path d="m37.2207 14.4831s.1545-.1499.392-.3852c.6571-.6503 1.9502-1.9489 2.3771-2.506 2.107-2.7519.8579-3.90872-2.1095-5.6435-2.9088-1.69862-4.8834-3.20917-6.8037.42954-.5146.97509-1.7618 3.91126-1.7618 3.91126" fill="#eb5d72"/><path d="m34.3248 6.34063c.0203.01627.0394.0339.0572.05276.0181.01871.0383.03832.0595.05681l.1203.11667c.0788.07753.1614.15059.2401.22603.0786.07544.1611.14537.2425.21537s.1597.14126.2449.2047c.3211.2633.6634.49966 1.0234.70669.0872.05463.1775.10417.2705.14837.0897.05153.1823.0981.2772.13953.0942.04288.1894.08465.283.13282l.2955.11623c.0496.01865.0984.04155.1481.06229s.1072.03255.1526.05253c.1073.0336.2064.0709.3109.11098.215.07346.4286.12811.6514.22308l.0335.0145c.0536.02311.0986.06241.1287.11239.0301.04997.0439.10813.0393.1663-.0046.05818-.0273.11347-.0648.15811-.0376.04465-.0882.07641-.1448.09084-.1238.03052-.2481.05581-.3747.07602-.0633.01063-.1268.01917-.1902.02771l-.0961.00657-.0951.00651c-.1279.00141-.2571.0008-.3865-.00399-.1299-.00164-.2594-.01491-.3869-.03966-.1285-.02165-.2588-.04002-.3858-.07121-.1271-.03119-.2509-.07626-.3764-.11595-.1256-.04118-.2483-.091-.3671-.14911-.121-.05511-.2388-.11714-.3527-.18579-.4602-.26292-.8646-.61318-1.1905-1.03111-.0416-.05038-.0802-.1031-.1158-.15792-.0373-.05412-.0745-.10825-.1087-.16259-.0705-.11063-.132-.22608-.1913-.34167-.0563-.11831-.1059-.23966-.1487-.36348-.0442-.12805-.0777-.2595-.1004-.39303-.0097-.05413-.0028-.10993.0197-.1601.0226-.05016.0597-.09236.1066-.12108s.1014-.04262.1563-.03989.1078.02197.1516.0552z" fill="#000"/><path d="m37.2207 14.4831s.1545-.1499.392-.3852c.6571-.6503 1.9502-1.9489 2.3771-2.506 2.107-2.7519.8579-3.90872-2.1095-5.6435-2.9088-1.69862-4.8834-3.20917-6.8037.42954-.5146.97509-1.7618 3.91126-1.7618 3.91126" stroke="#000" stroke-linecap="round" stroke-miterlimit="10" stroke-width="1.23301"/><path d="m34.8459 16.4849c2.2053 1.4505 3.8827-.3189 1.2115-2.1362-.9003-.6123-5.0443-3.1244-6.8466-3.9743-1.7163-.80999-3.229 1.4572-1.774 1.8571 1.6971.4654 3.8046 2.1525 3.8046 2.1525" fill="#d1d3d4"/><path d="m27.4352 12.2299c-1.4198-.621-2.377 1.5893-1.2202 2.259.9421.5452 6.356 3.7333 8.1803 4.543 1.538.6831 2.8729-1.5242 1.5452-2.2422" fill="#d1d3d4"/><g fill="#000"><path d="m35.4064 16.6767c.2048.0717.4143.1294.627.1725.1797.0395.3646.0492.5475.0287.1211-.0096.2352-.0605.3232-.1442.0523-.0647.0787-.1464.0743-.2294-.0031-.1392-.0344-.2763-.0922-.4029-.0728-.165-.1658-.3204-.2767-.4626-.2561-.3214-.562-.5998-.906-.8246-.1813-.1211-.3797-.245-.5766-.3672l-.5973-.3647c-.4-.2414-.8025-.4809-1.2073-.7185-.8094-.4741-1.6235-.9391-2.4422-1.3949-.4084-.2287-.8163-.4569-1.2261-.6771-.206-.1095-.4115-.2186-.6144-.3248-.1027-.0545-.205-.1063-.3069-.1554-.0992-.0484-.2126-.1066-.287-.1374-.3289-.1443-.6624-.1635-.9035-.0508-.1144.0505-.2118.1327-.2808.2369-.0581.0875-.0825.1931-.0687.2972.0217.1155.0823.2203.1717.2967.0271.0255.0556.0494.0853.0717l.0626.046.0679.0473c.0895.0638.1875.1278.2818.1912l.5833.3788.5891.3805c.7868.5104 1.5763 1.0236 2.3444 1.5711.0567.0403.0964.1002.1117.168.0152.0679.0049.139-.029.1997-.034.0607-.0891.1067-.1549.1293-.0658.0225-.1376.02-.2016-.0071-.4382-.1834-.8665-.3832-1.2925-.5894-.426-.2061-.8468-.4213-1.2663-.6429-.4194-.2216-.8344-.4495-1.2458-.6983-.1046-.0632-.2056-.1215-.3126-.1918l-.0786-.0498c-.027-.0167-.0502-.0305-.0854-.0561-.066-.0459-.129-.0958-.1889-.1494-.1283-.1144-.239-.247-.3284-.3937-.1435-.237-.2195-.5086-.2199-.7856-.0004-.2769.0748-.5488.2175-.7861.1767-.30178.4405-.54299.7569-.69199.2973-.14114.6246-.20721.9534-.19239.3038.01319.6028.08026.883.19808.1436.05924.2384.11076.3514.16403.1131.05327.2201.10793.3251.16144.2173.11053.4255.21913.6363.33053.4205.2238.8372.451 1.2502.6817.8247.4648 1.642.9396 2.4563 1.4202.4073.2403.8134.483 1.2184.7281l.6077.3727c.2017.1251.4022.2512.6136.3923.4466.2886.8479.6419 1.1909 1.0483.186.2238.3382.4736.4517.7416.1317.3071.183.6427.149.9751-.0222.1902-.081.3743-.1732.5422-.049.0869-.1068.1686-.1725.2436-.0668.0734-.1411.1396-.2216.1976-.1529.108-.3261.1839-.5092.2232-.1627.0349-.3299.0441-.4955.0272-.2901-.0296-.5707-.1197-.8239-.2644-.2301-.1291-.4396-.2918-.6216-.4828-.0401-.0422-.065-.0966-.0707-.1546s.0081-.1162.0392-.1654c.0312-.0493.0778-.0867.1326-.1065.0548-.0197.1146-.0206.17-.0025z"/><path d="m26.9506 12.0258c-.1166.0517-.2221.1254-.3108.217-.0934.0944-.1748.1999-.2426.314-.1446.2408-.2477.5042-.3049.7792-.0557.2685-.0637.5435.0023.7333.0244.0806.0685.1538.1282.2131.0273.0256.0577.0478.0905.0659l.2322.13 3.7106 2.0972c.6167.3498 1.2357.6953 1.8531 1.0391.6175.3439 1.2383.6846 1.8587.9913l.2292.1099.1146.056.0446.0211.0404.0177c.1026.0445.2121.0713.3237.0793.2241.0124.4449-.0579.6205-.1976.1877-.1393.3293-.3315.4068-.5519.0358-.0998.0485-.2064.0373-.3118-.0162-.1213-.0622-.2367-.134-.3359l-.0204-.0309c-.0353-.0526-.0524-.1152-.0487-.1784.0037-.0631.0279-.1234.069-.1715s.0968-.0814.1586-.0949.1263-.0064.1838.0202c.2201.1055.4018.2771.5197.4909.1219.2253.1784.4802.1631.7359-.0361.4865-.2623.9393-.6297 1.2602-.1811.1617-.3892.2902-.6148.3797-.231.0918-.4769.14-.7254.1419-.2448.0015-.488-.0389-.7191-.1192-.0288-.0097-.0565-.0193-.0821-.0278-.0257-.0085-.0597-.0227-.0783-.0315l-.1274-.0576-.2544-.1156c-.6617-.3142-1.2959-.6446-1.9275-.9846-.6316-.3401-1.2555-.6852-1.877-1.0368-1.2414-.7035-2.4718-1.4267-3.6909-2.1613l-.2304-.1358c-.1209-.072-.232-.1592-.3307-.2594-.1904-.196-.3301-.4356-.4069-.6979-.0689-.2322-.0985-.4744-.0877-.7164.0102-.224.0491-.4457.116-.6598.1262-.4174.3535-.7973.6619-1.1057.1618-.1599.3506-.2899.5577-.384.217-.0997.4573-.1378.6945-.1101.0636.0086.1226.0377.1681.0829.0456.0452.0751.104.0841.1675.0091.0635-.0029.1282-.034.1843s-.0797.1005-.1383.1265z"/><path d="m12.1228 40.0358c-.6612 2.9457-2.2632 4.4095-3.10191 5.7588l2.77661.5727s.7321-1.7513 3.4955-3.678c-.8508-.6331-2.1183-1.8467-3.1702-2.6535z"/><path d="m12.6745 35.6542c-.0352.0307-.0602.0727-.0677.1195-.0074.0468.0031.0941.0296.1322.0265.0382.0673.0644.1137.0737.0465.0093.0946.0004.1356-.022.1674-.0912.3252-.1682.4933-.2382.4639-.2061.9788-.2387 1.0872.0128.1731.2605.1843.8022.1041 1.2548l-.1328.8124.7821-.335c.4727-.1949 1.048-.2498 1.3857-.0704.3411.1586.5386.6249.5935 1.1857l.0181.5988.5993-.1985c.8692-.4215 1.7469-.107 1.9687.9213.0396.1653.0607.339.0587.5109-.0011.0467.013.0935.0426.1306.0295.037.0715.0612.1175.0673.0461.0061.093-.0063.1311-.0343.0382-.0281.0641-.0696.0752-.1149.0474-.2021.0656-.4114.0578-.6209-.0217-.5832-.2604-1.2529-.8685-1.6269-.6145-.3732-1.3393-.2836-1.9021-.0938l.6175.4004c-.017-.6682-.2349-1.5844-1.0636-2.0049-.7985-.3767-1.575-.1888-2.2187.1158l.6493.4774c.0382-.6011.0606-1.2474-.4401-1.8621-.2648-.3094-.7387-.4025-1.0585-.3258-.3313.0667-.5944.2134-.8352.371-.1718.1141-.3202.2318-.4734.3631z"/></g></g></svg>

<svg width="50" height="52" viewBox="0 0 50 52" fill="none" xmlns="http://www.w3.org/2000/svg">
<g filter="url(#filter0_d_2162_2164)">
<path d="M11.9647 35.6931C13.2411 34.6277 14.8983 34.7375 15.1554 36.8444C16.0584 36.4072 17.3954 36.6969 17.5903 38.3313C19.1818 38.0106 20.0955 38.8447 20.6189 39.8551L33.0435 19.4246L25.5379 14.7816L11.9647 35.6931Z" fill="#FF9800"/>
<path d="M12.6932 35.1901C14.2547 34.5368 15.386 35.6218 15.1555 36.8443C16.409 35.9919 17.3955 36.6969 17.5905 38.3312C19.1819 38.0105 20.0956 38.8446 20.6191 39.855C20.6191 39.855 14.5655 42.1957 12.6312 44.536C10.6969 46.8763 11.1709 44.1516 11.2842 43.7827C11.9293 41.705 12.6932 35.1901 12.6932 35.1901Z" fill="#FFFAC5"/>
<path d="M33.4867 18.916L20.1526 40.55C20.1526 40.55 15.146 40.5708 12.2263 44.3165C11.9652 44.1167 11.6685 43.9683 11.3521 43.8791C11.3521 43.8791 14.0758 39.6311 12.3304 35.7232L26.0162 14.8622" stroke="black" stroke-width="1.5054" stroke-miterlimit="10" stroke-linecap="round" stroke-linejoin="round"/>
<path d="M24.3253 29.0399C24.3496 28.9993 24.3595 28.9509 24.3509 28.9039C24.3422 28.8568 24.316 28.8152 24.2776 28.7879C24.2392 28.7606 24.1912 28.7495 24.144 28.7569C24.0967 28.7642 24.0543 28.7895 24.0239 28.8258C24.0239 28.8258 24.0239 28.8258 24.0239 28.8258C23.9119 28.96 23.8003 29.0945 23.689 29.2293C22.1119 31.1392 20.6079 33.101 19.1768 35.1148C18.7904 35.6585 18.404 36.2022 18.0176 36.746C17.9167 36.888 17.8157 37.0301 17.7147 37.1722C17.639 37.2787 17.6087 37.411 17.6305 37.5399C17.6523 37.6688 17.7244 37.7837 17.831 37.8595C17.9376 37.9352 18.0698 37.9655 18.1987 37.9437C18.3276 37.9219 18.4426 37.8498 18.5183 37.7432C18.5183 37.7432 18.5183 37.7432 18.5183 37.7432C18.6192 37.6011 18.7202 37.4591 18.8212 37.317C19.2076 36.7732 19.594 36.2295 19.9804 35.6858C21.4114 33.6721 22.7694 31.6064 24.0544 29.4889C24.145 29.3395 24.2353 29.1898 24.3253 29.0399Z" fill="black"/>
<path d="M17.1657 33.451C17.1351 33.5064 17.1243 33.5715 17.1383 33.6339C17.1524 33.6962 17.1896 33.7504 17.2425 33.7848C17.2954 33.8192 17.36 33.8314 17.4227 33.819C17.4854 33.8065 17.5406 33.7703 17.5788 33.7199C17.5788 33.7199 17.5788 33.7199 17.5788 33.7199C17.788 33.4435 17.9962 33.1665 18.2035 32.8888C20.3117 30.0659 22.3247 27.1811 24.2426 24.2344C25.7198 21.9648 27.1971 19.6952 28.6743 17.4255C28.8629 17.1357 29.0515 16.8459 29.2401 16.5561C29.3352 16.4101 29.3684 16.2322 29.3323 16.0617C29.2963 15.8911 29.1939 15.7419 29.0478 15.6469C28.9018 15.5518 28.7239 15.5186 28.5534 15.5547C28.3829 15.5908 28.2336 15.6931 28.1386 15.8392C28.1386 15.8392 28.1386 15.8392 28.1386 15.8392C27.95 16.129 27.7613 16.4188 27.5727 16.7085C26.0955 18.9782 24.6183 21.2478 23.141 23.5175C21.2231 26.4642 19.4003 29.4728 17.6727 32.5433C17.5028 32.8453 17.3338 33.1479 17.1657 33.451Z" fill="black"/>
<path d="M37.2207 14.4831C37.2207 14.4831 37.3752 14.3332 37.6127 14.0979C38.2698 13.4476 39.5629 12.149 39.9898 11.5919C42.0968 8.84 40.8477 7.68318 37.8803 5.9484C34.9715 4.24978 32.9969 2.73923 31.0766 6.37794C30.562 7.35303 29.3148 10.2892 29.3148 10.2892" fill="#EB5D72"/>
<path d="M34.3248 6.34063C34.3451 6.3569 34.3642 6.37453 34.382 6.39339C34.4001 6.4121 34.4203 6.43171 34.4415 6.4502L34.5618 6.56687C34.6406 6.6444 34.7232 6.71746 34.8019 6.7929C34.8805 6.86834 34.963 6.93827 35.0444 7.00827C35.1258 7.07827 35.2041 7.14953 35.2893 7.21297C35.6104 7.47627 35.9527 7.71263 36.3127 7.91966C36.3999 7.97429 36.4902 8.02383 36.5832 8.06803C36.6729 8.11956 36.7655 8.16613 36.8604 8.20756C36.9546 8.25044 37.0498 8.29221 37.1434 8.34038L37.4389 8.45661C37.4885 8.47526 37.5373 8.49816 37.587 8.5189C37.6367 8.53964 37.6942 8.55145 37.7396 8.57143C37.8469 8.60503 37.946 8.64233 38.0505 8.68241C38.2655 8.75587 38.4791 8.81052 38.7019 8.90549L38.7354 8.91999C38.789 8.9431 38.834 8.9824 38.8641 9.03238C38.8942 9.08235 38.908 9.14051 38.9034 9.19868C38.8988 9.25686 38.8761 9.31215 38.8386 9.35679C38.801 9.40144 38.7504 9.4332 38.6938 9.44763C38.57 9.47815 38.4457 9.50344 38.3191 9.52365C38.2558 9.53428 38.1923 9.54282 38.1289 9.55136L38.0328 9.55793L37.9377 9.56444C37.8098 9.56585 37.6806 9.56524 37.5512 9.56045C37.4213 9.55881 37.2918 9.54554 37.1643 9.52079C37.0358 9.49914 36.9055 9.48077 36.7785 9.44958C36.6514 9.41839 36.5276 9.37332 36.4021 9.33363C36.2765 9.29245 36.1538 9.24263 36.035 9.18452C35.914 9.12941 35.7962 9.06738 35.6823 8.99873C35.2221 8.73581 34.8177 8.38555 34.4918 7.96762C34.4502 7.91724 34.4116 7.86452 34.376 7.8097C34.3387 7.75558 34.3015 7.70145 34.2673 7.64711C34.1968 7.53648 34.1353 7.42103 34.076 7.30544C34.0197 7.18713 33.9701 7.06578 33.9273 6.94196C33.8831 6.81391 33.8496 6.68246 33.8269 6.54893C33.8172 6.4948 33.8241 6.439 33.8466 6.38883C33.8692 6.33867 33.9063 6.29647 33.9532 6.26775C34.0001 6.23903 34.0546 6.22513 34.1095 6.22786C34.1644 6.23059 34.2173 6.24983 34.2611 6.28306L34.3248 6.34063Z" fill="black"/>
<path d="M37.2207 14.4831C37.2207 14.4831 37.3752 14.3332 37.6127 14.0979C38.2698 13.4476 39.5629 12.149 39.9898 11.5919C42.0968 8.84 40.8477 7.68318 37.8803 5.9484C34.9715 4.24978 32.9969 2.73923 31.0766 6.37794C30.562 7.35303 29.3148 10.2892 29.3148 10.2892" stroke="black" stroke-width="1.23301" stroke-miterlimit="10" stroke-linecap="round"/>
<path d="M34.8459 16.4849C37.0512 17.9354 38.7286 16.166 36.0574 14.3487C35.1571 13.7364 31.0131 11.2243 29.2108 10.3744C27.4945 9.56441 25.9818 11.8316 27.4368 12.2315C29.1339 12.6969 31.2414 14.384 31.2414 14.384" fill="#D1D3D4"/>
<path d="M27.4352 12.2299C26.0154 11.6089 25.0582 13.8192 26.215 14.4889C27.1571 15.0341 32.571 18.2222 34.3953 19.0319C35.9333 19.715 37.2682 17.5077 35.9405 16.7897" fill="#D1D3D4"/>
<path d="M35.4064 16.6767C35.6112 16.7484 35.8207 16.8061 36.0334 16.8492C36.2131 16.8887 36.398 16.8984 36.5809 16.8779C36.702 16.8683 36.8161 16.8174 36.9041 16.7337C36.9564 16.669 36.9828 16.5873 36.9784 16.5043C36.9753 16.3651 36.944 16.228 36.8862 16.1014C36.8134 15.9364 36.7204 15.781 36.6095 15.6388C36.3534 15.3174 36.0475 15.039 35.7035 14.8142C35.5222 14.6931 35.3238 14.5692 35.1269 14.447L34.5296 14.0823C34.1296 13.8409 33.7271 13.6014 33.3223 13.3638C32.5129 12.8897 31.6988 12.4247 30.8801 11.9689C30.4717 11.7402 30.0638 11.512 29.654 11.2918C29.448 11.1823 29.2425 11.0732 29.0396 10.967C28.9369 10.9125 28.8346 10.8607 28.7327 10.8116C28.6335 10.7632 28.5201 10.705 28.4457 10.6742C28.1168 10.5299 27.7833 10.5107 27.5422 10.6234C27.4278 10.6739 27.3304 10.7561 27.2614 10.8603C27.2033 10.9478 27.1789 11.0534 27.1927 11.1575C27.2144 11.273 27.275 11.3778 27.3644 11.4542C27.3915 11.4797 27.42 11.5036 27.4497 11.5259L27.5123 11.5719L27.5802 11.6192C27.6697 11.683 27.7677 11.747 27.862 11.8104L28.4453 12.1892L29.0344 12.5697C29.8212 13.0801 30.6107 13.5933 31.3788 14.1408C31.4355 14.1811 31.4752 14.241 31.4905 14.3088C31.5057 14.3767 31.4954 14.4478 31.4615 14.5085C31.4275 14.5692 31.3724 14.6152 31.3066 14.6378C31.2408 14.6603 31.169 14.6578 31.105 14.6307C30.6668 14.4473 30.2385 14.2475 29.8125 14.0413C29.3865 13.8352 28.9657 13.62 28.5462 13.3984C28.1268 13.1768 27.7118 12.9489 27.3004 12.7001C27.1958 12.6369 27.0948 12.5786 26.9878 12.5083L26.9092 12.4585C26.8822 12.4418 26.859 12.428 26.8238 12.4024C26.7578 12.3565 26.6948 12.3066 26.6349 12.253C26.5066 12.1386 26.3959 12.006 26.3065 11.8593C26.163 11.6223 26.087 11.3507 26.0866 11.0737C26.0862 10.7968 26.1614 10.5249 26.3041 10.2876C26.4808 9.98582 26.7446 9.74461 27.061 9.59561C27.3583 9.45447 27.6856 9.3884 28.0144 9.40322C28.3182 9.41641 28.6172 9.48348 28.8974 9.6013C29.041 9.66054 29.1358 9.71206 29.2488 9.76533C29.3619 9.8186 29.4689 9.87326 29.5739 9.92677C29.7912 10.0373 29.9994 10.1459 30.2102 10.2573C30.6307 10.4811 31.0474 10.7083 31.4604 10.939C32.2851 11.4038 33.1024 11.8786 33.9167 12.3592C34.324 12.5995 34.7301 12.8422 35.1351 13.0873L35.7428 13.46C35.9445 13.5851 36.145 13.7112 36.3564 13.8523C36.803 14.1409 37.2043 14.4942 37.5473 14.9006C37.7333 15.1244 37.8855 15.3742 37.999 15.6422C38.1307 15.9493 38.182 16.2849 38.148 16.6173C38.1258 16.8075 38.067 16.9916 37.9748 17.1595C37.9258 17.2464 37.868 17.3281 37.8023 17.4031C37.7355 17.4765 37.6612 17.5427 37.5807 17.6007C37.4278 17.7087 37.2546 17.7846 37.0715 17.8239C36.9088 17.8588 36.7416 17.868 36.576 17.8511C36.2859 17.8215 36.0053 17.7314 35.7521 17.5867C35.522 17.4576 35.3125 17.2949 35.1305 17.1039C35.0904 17.0617 35.0655 17.0073 35.0598 16.9493C35.0541 16.8913 35.0679 16.8331 35.099 16.7839C35.1302 16.7346 35.1768 16.6972 35.2316 16.6774C35.2864 16.6577 35.3462 16.6568 35.4016 16.6749L35.4064 16.6767Z" fill="black"/>
<path d="M26.9506 12.0258C26.834 12.0775 26.7285 12.1512 26.6398 12.2428C26.5464 12.3372 26.465 12.4427 26.3972 12.5568C26.2526 12.7976 26.1495 13.061 26.0923 13.336C26.0366 13.6045 26.0286 13.8795 26.0946 14.0693C26.119 14.1499 26.1631 14.2231 26.2228 14.2824C26.2501 14.308 26.2805 14.3302 26.3133 14.3483L26.5455 14.4783L30.2561 16.5755C30.8728 16.9253 31.4918 17.2708 32.1092 17.6146C32.7267 17.9585 33.3475 18.2992 33.9679 18.6059L34.1971 18.7158L34.3117 18.7718L34.3563 18.7929L34.3967 18.8106C34.4993 18.8551 34.6088 18.8819 34.7204 18.8899C34.9445 18.9023 35.1653 18.832 35.3409 18.6923C35.5286 18.553 35.6702 18.3608 35.7477 18.1404C35.7835 18.0406 35.7962 17.934 35.785 17.8286C35.7688 17.7073 35.7228 17.5919 35.651 17.4927L35.6306 17.4618C35.5953 17.4092 35.5782 17.3466 35.5819 17.2834C35.5856 17.2203 35.6098 17.16 35.6509 17.1119C35.692 17.0638 35.7477 17.0305 35.8095 17.017C35.8713 17.0035 35.9358 17.0106 35.9933 17.0372C36.2134 17.1427 36.3951 17.3143 36.513 17.5281C36.6349 17.7534 36.6914 18.0083 36.6761 18.264C36.64 18.7505 36.4138 19.2033 36.0464 19.5242C35.8653 19.6859 35.6572 19.8144 35.4316 19.9039C35.2006 19.9957 34.9547 20.0439 34.7062 20.0458C34.4614 20.0473 34.2182 20.0069 33.9871 19.9266C33.9583 19.9169 33.9306 19.9073 33.905 19.8988C33.8793 19.8903 33.8453 19.8761 33.8267 19.8673L33.6993 19.8097L33.4449 19.6941C32.7832 19.3799 32.149 19.0495 31.5174 18.7095C30.8858 18.3694 30.2619 18.0243 29.6404 17.6727C28.399 16.9692 27.1686 16.246 25.9495 15.5114L25.7191 15.3756C25.5982 15.3036 25.4871 15.2164 25.3884 15.1162C25.198 14.9202 25.0583 14.6806 24.9815 14.4183C24.9126 14.1861 24.883 13.9439 24.8938 13.7019C24.904 13.4779 24.9429 13.2562 25.0098 13.0421C25.136 12.6247 25.3633 12.2448 25.6717 11.9364C25.8335 11.7765 26.0223 11.6465 26.2294 11.5524C26.4464 11.4527 26.6867 11.4146 26.9239 11.4423C26.9875 11.4509 27.0465 11.48 27.092 11.5252C27.1376 11.5704 27.1671 11.6292 27.1761 11.6927C27.1852 11.7562 27.1732 11.8209 27.1421 11.877C27.111 11.9331 27.0624 11.9775 27.0038 12.0035L26.9506 12.0258Z" fill="black"/>
<path d="M12.1228 40.0358C11.4616 42.9815 9.8596 44.4453 9.02089 45.7946L11.7975 46.3673C11.7975 46.3673 12.5296 44.616 15.293 42.6893C14.4422 42.0562 13.1747 40.8426 12.1228 40.0358Z" fill="black"/>
<path d="M12.6745 35.6542C12.6393 35.6849 12.6143 35.7269 12.6068 35.7737C12.5994 35.8205 12.6099 35.8678 12.6364 35.9059C12.6629 35.9441 12.7037 35.9703 12.7501 35.9796C12.7966 35.9889 12.8447 35.98 12.8857 35.9576C12.8857 35.9576 12.8857 35.9576 12.8857 35.9576C13.0531 35.8664 13.2109 35.7894 13.379 35.7194C13.8429 35.5133 14.3578 35.4807 14.4662 35.7322C14.6393 35.9927 14.6505 36.5344 14.5703 36.987L14.4375 37.7994L15.2196 37.4644C15.6923 37.2695 16.2676 37.2146 16.6053 37.394C16.9464 37.5526 17.1439 38.0189 17.1988 38.5797L17.2169 39.1785L17.8162 38.98C18.6854 38.5585 19.5631 38.873 19.7849 39.9013C19.8245 40.0666 19.8456 40.2403 19.8436 40.4122C19.8425 40.4589 19.8566 40.5057 19.8862 40.5428C19.9157 40.5798 19.9577 40.604 20.0037 40.6101C20.0498 40.6162 20.0967 40.6038 20.1348 40.5758C20.173 40.5477 20.1989 40.5062 20.21 40.4609C20.21 40.4609 20.21 40.4609 20.21 40.4609C20.2574 40.2588 20.2756 40.0495 20.2678 39.84C20.2461 39.2568 20.0074 38.5871 19.3993 38.2131C18.7848 37.8399 18.06 37.9295 17.4972 38.1193L18.1147 38.5197C18.0977 37.8515 17.8798 36.9353 17.0511 36.5148C16.2526 36.1381 15.4761 36.326 14.8324 36.6306L15.4817 37.108C15.5199 36.5069 15.5423 35.8606 15.0416 35.2459C14.7768 34.9365 14.3029 34.8434 13.9831 34.9201C13.6518 34.9868 13.3887 35.1335 13.1479 35.2911C12.9761 35.4052 12.8277 35.5229 12.6745 35.6542Z" fill="black"/>
</g>
<defs>
<filter id="filter0_d_2162_2164" x="-3" y="-1" width="56" height="56" filterUnits="userSpaceOnUse" color-interpolation-filters="sRGB">
<feFlood flood-opacity="0" result="BackgroundImageFix"/>
<feColorMatrix in="SourceAlpha" type="matrix" values="0 0 0 0 0 0 0 0 0 0 0 0 0 0 0 0 0 0 127 0" result="hardAlpha"/>
<feOffset dy="2"/>
<feGaussianBlur stdDeviation="1.5"/>
<feColorMatrix type="matrix" values="0 0 0 0 0 0 0 0 0 0 0 0 0 0 0 0 0 0 0.25 0"/>
<feBlend mode="normal" in2="BackgroundImageFix" result="effect1_dropShadow_2162_2164"/>
<feBlend mode="normal" in="SourceGraphic" in2="effect1_dropShadow_2162_2164" result="shape"/>
</filter>
</defs>
</svg>
